svgs/torguard.svg

<svg width="192" height="192" viewBox="0 0 192 192" fill="none" xmlns="http://www.w3.org/2000/svg">
<path d="M127.095 121.477C105.538 130.039 85.421 146.736 78.2552 171" stroke="black" stroke-width="10" stroke-linecap="round" stroke-linejoin="round"/>
<path d="M138.364 134.756C124.487 141.01 107.247 154.59 104.874 171" stroke="black" stroke-width="10" stroke-linecap="round" stroke-linejoin="round"/>
<path d="M142.764 171H51.6785" stroke="black" stroke-width="10" stroke-linecap="round" stroke-linejoin="round"/>
<path d="M120.162 106.837C84.361 112.155 60.8744 141.182 51.6785 171" stroke="black" stroke-width="10" stroke-linecap="round" stroke-linejoin="round"/>
<path d="M100.358 82.5994C86.505 82.5994 74.059 91.1703 70.3232 112.012V63.7105C70.3232 57.0276 72.9779 50.6184 77.7035 45.893C82.429 41.1674 88.838 38.5127 95.521 38.5127C102.204 38.5127 108.613 41.1674 113.338 45.893C118.064 50.6184 120.718 57.0276 120.718 63.7105V82.5994H100.358Z" stroke="black" stroke-width="10" stroke-linecap="round" stroke-linejoin="round"/>
<path d="M142.763 171C149.362 171.002 155.742 168.625 160.732 164.307C165.722 159.989 168.989 154.017 169.935 147.486C170.881 140.955 169.442 134.301 165.882 128.744C162.323 123.187 156.88 119.099 150.552 117.228C151.607 114.936 152.121 112.431 152.052 109.909C151.984 107.386 151.335 104.914 150.156 102.683C148.978 100.452 147.301 98.5223 145.256 97.0442C143.211 95.566 140.852 94.5789 138.365 94.1596V94.1665V63.7105C138.329 52.3709 133.8 41.5076 125.77 33.5016C117.739 25.4957 106.862 21 95.522 21C84.183 21 73.3057 25.4957 65.275 33.5016C57.2444 41.5076 52.7152 52.3709 52.6803 63.7105V109.418H51.6798C43.5327 109.447 35.7295 112.703 29.9792 118.475C24.2288 124.246 21 132.062 21 140.209C21 148.356 24.2288 156.171 29.9792 161.942C35.7295 167.713 43.5327 170.97 51.6798 171" stroke="black" stroke-width="10" stroke-linecap="round" stroke-linejoin="round"/>
</svg>

<svg width="192" height="192" viewBox="0 0 192 192" fill="none" xmlns="http://www.w3.org/2000/svg"><path d="M127.095 121.477c-21.557 8.562-41.674 25.259-48.84 49.523M138.364 134.756c-13.877 6.254-31.117 19.834-33.49 36.244M142.764 171H51.678M120.162 106.837C84.361 112.155 60.874 141.182 51.678 171M100.358 82.6c-13.853 0-26.299 8.57-30.035 29.412V63.711a25.197 25.197 0 1 1 50.395 0v18.888h-20.36Z" stroke="#000" stroke-width="10" stroke-linecap="round" stroke-linejoin="round"/><path d="M142.763 171a27.45 27.45 0 0 0 27.172-23.514 27.45 27.45 0 0 0-19.383-30.258 16.432 16.432 0 0 0-.396-14.545 16.415 16.415 0 0 0-11.791-8.523v.007V63.71a42.844 42.844 0 0 0-85.685 0v45.707h-1a30.793 30.793 0 0 0 0 61.582" stroke="#000" stroke-width="10" stroke-linecap="round" stroke-linejoin="round"/></svg>
